X:230
T:Earl of Loudon
R:Strathspey
C:John Bowie
B:The Athole Collection
M:C
L:1/8
K:F
f|c<F c>A F>Ac>A|D<d d>c d<G G>f|c<F c>A Ff/g/ a>g|f>d c/d/c/B/ A<F~F:|
c|f>ga>g f<d d>f|c>d~f>g a<g gf/g/|f>ga>g f<c a>g|f>d c/d/c/B/ A<F F>c|
f>ga>g f<d d>f|c>d~f>g a<g gf/g/|a>fg>d fe/d/ a>g|f>d c/d/c/B/ A<F~F||

